X: 35746
T: Salamanca Samba
R: reel
M: 4/4
K: Bminor
"A"f2fe dfce|dBB^A =c^cdB|cF^Ac FAce|dBB^A Bcde|
~f3e dfce|dBB^A =c^cdB|cF^Ac FAce|dBB^A Bcde|
f2fe dfce|dBB^A =c^cdB|cF^Ac FAce|dBB^A Bcde|
~f3e dfcd-|dBB^A =c^cdB|cF^Ac FAce|dBB^A Bcde||
|:"B"~g3e ceag|f2ff defd|edcB ^ABcF-|F^Ace dBBE:|
~g3e ceag|f2ff =f^f=f^f|edcB ^ABcF-|F^Ace dBBE|
~g3e ceag|f2ff defd|edcB ^ABcF-|F^Ace dB3||
|:"C"FG^AB AGFG|^ABAG FGAB|cdcB ^ABcd|edcB ^AGF2|
FG^AB AGFG|^ABAG FGAG|~E3F GFEG|~F2 f2 ~F2 f2:|F4- Ffff||

